app/images/participant-modal/gear-outline.svg

<svg width="60" height="60" viewBox="0 0 60 60" fill="none" xmlns="http://www.w3.org/2000/svg">
<path d="M30 8.32031C24.8876 8.32031 19.923 10.1351 16.0209 13.4305C15.65 13.7436 15.6034 14.2982 15.9164 14.6691C16.2296 15.04 16.7839 15.0866 17.155 14.7735C20.7403 11.7456 25.3022 10.0781 30 10.0781C40.9849 10.0781 49.9219 19.0151 49.9219 30C49.9219 40.9849 40.9849 49.9219 30 49.9219C19.0151 49.9219 10.0781 40.9849 10.0781 30C10.0781 25.3023 11.7456 20.7404 14.7735 17.155C15.0866 16.7841 15.0398 16.2296 14.6689 15.9164C14.298 15.6032 13.7435 15.6499 13.4304 16.0208C10.1351 19.923 8.32031 24.8877 8.32031 30C8.32031 41.9542 18.0457 51.6797 30 51.6797C41.9543 51.6797 51.6797 41.9542 51.6797 30C51.6797 18.0458 41.9543 8.32031 30 8.32031Z" fill="#303030"/>
<path d="M57.6291 33.0368C59.025 32.6878 60 31.4389 60 30C60 28.5611 59.025 27.3122 57.6291 26.9632L54.9224 26.2866C54.8032 25.4827 54.6444 24.6813 54.448 23.8922L56.6879 22.2325C57.8441 21.3757 58.2671 19.8489 57.7164 18.5195C57.1657 17.1899 55.7868 16.4093 54.3636 16.6212L51.6045 17.0317C51.1857 16.3357 50.7315 15.6571 50.2477 15.0045L51.684 12.6105C52.4243 11.3767 52.2307 9.80414 51.2132 8.78672C50.1957 7.76918 48.6233 7.57559 47.3892 8.31586L44.9954 9.75234C44.3426 9.26836 43.6641 8.81414 42.9682 8.39543L43.3787 5.63637C43.5907 4.21301 42.81 2.8343 41.4805 2.28363C40.1513 1.73309 38.6242 2.1559 37.7674 3.31207L36.1078 5.55199C35.3183 5.35547 34.517 5.19668 33.7134 5.07762L33.0368 2.37105C32.6879 0.975 31.4391 0 30 0C28.5609 0 27.3121 0.975 26.9632 2.37105L26.2866 5.07773C25.4831 5.1968 24.6818 5.35559 23.8922 5.55211L22.2326 3.31219C21.3759 2.15602 19.8495 1.73297 18.5195 2.28375C17.1899 2.83441 16.4093 4.21312 16.6213 5.63637L17.0318 8.39555C16.3359 8.81414 15.6574 9.26836 15.0046 9.75246L12.6107 8.31609C11.3766 7.57582 9.80426 7.76941 8.78672 8.78695C7.76918 9.80449 7.57559 11.3769 8.31586 12.6109L9.75223 15.0047C9.26824 15.6575 8.81402 16.3362 8.39543 17.0319L5.63637 16.6214C4.2123 16.4094 2.83406 17.1902 2.28363 18.5196C1.73285 19.849 2.15578 21.3759 3.31195 22.2327L5.55188 23.8923C5.35535 24.6817 5.19656 25.4831 5.0775 26.2867L2.37082 26.9633C0.975 27.3122 0 28.5611 0 30C0 31.4389 0.975 32.6878 2.37094 33.0368L5.07762 33.7134C5.19668 34.5169 5.35547 35.3184 5.55199 36.1077L3.31207 37.7674C2.1559 38.6242 1.73285 40.151 2.28363 41.4804C2.8343 42.81 4.21336 43.5907 5.63637 43.3787L8.39555 42.9682C8.81426 43.6642 9.26836 44.3427 9.75234 44.9953L8.31598 47.3892C7.5757 48.6231 7.7693 50.1956 8.78684 51.213C9.80449 52.2306 11.377 52.4242 12.6108 51.6838L15.0047 50.2475C15.6575 50.7316 16.3361 51.1857 17.0319 51.6045L16.6214 54.3635C16.4094 55.7869 17.1901 57.1656 18.5196 57.7162C19.849 58.2668 21.3759 57.8441 22.2327 56.6878L23.8923 54.4479C24.6816 54.6444 25.4831 54.8032 26.2867 54.9223L26.9633 57.6288C27.3121 59.025 28.5609 60 30 60C31.4391 60 32.6879 59.025 33.0368 57.6289L33.7134 54.9223C34.5169 54.8032 35.3183 54.6444 36.1078 54.4479L37.7674 56.6878C38.6243 57.8441 40.1515 58.2669 41.4805 57.7162C42.8101 57.1656 43.5907 55.7869 43.3787 54.3636L42.9682 51.6045C43.6641 51.1857 44.3426 50.7316 44.9954 50.2475L47.3893 51.6838C48.6231 52.4241 50.1956 52.2307 51.2133 51.213C52.2308 50.1955 52.4244 48.6231 51.6841 47.3891L50.2477 44.9953C50.7316 44.3427 51.1857 43.6642 51.6045 42.9682L54.3635 43.3787C55.7878 43.5902 57.1657 42.8099 57.7162 41.4805C58.267 40.1511 57.8441 38.6242 56.6879 37.7674L54.448 36.1077C54.6445 35.3187 54.8032 34.5173 54.9224 33.7134L57.6291 33.0368ZM52.924 37.1663L55.6414 39.1798C56.1483 39.5555 56.3338 40.2248 56.0923 40.8078C55.8509 41.3907 55.2476 41.7334 54.6223 41.6401L51.2755 41.1421C50.9166 41.0891 50.5618 41.2614 50.3824 41.5766C49.824 42.5575 49.1889 43.5063 48.4947 44.3968C48.2713 44.6834 48.2473 45.0779 48.4341 45.3894L50.1765 48.2936C50.5013 48.8346 50.4163 49.524 49.97 49.9702C49.5239 50.4164 48.8347 50.5013 48.2934 50.1765L45.3893 48.4341C45.0779 48.2471 44.6835 48.2713 44.3967 48.4945C43.5057 49.1891 42.5569 49.8243 41.5766 50.3823C41.2612 50.5618 41.0886 50.9167 41.1421 51.2755L41.64 54.6224C41.7328 55.2464 41.3906 55.8509 40.8076 56.0923C40.2246 56.3337 39.5552 56.1483 39.1796 55.6413L37.1661 52.9239C36.95 52.6323 36.5776 52.5037 36.2269 52.5996C35.1368 52.8993 34.0166 53.1212 32.8973 53.2591C32.5366 53.3037 32.2405 53.5656 32.1523 53.9183L31.3311 57.2026C31.1784 57.8147 30.6309 58.2422 30 58.2422C29.3691 58.2422 28.8216 57.8147 28.6686 57.2025L27.8475 53.9183C27.7593 53.5657 27.4631 53.3037 27.1024 53.2591C25.9829 53.1212 24.8627 52.8993 23.7729 52.5997C23.6958 52.5785 23.6174 52.5682 23.5399 52.5682C23.2661 52.5682 23.0021 52.6966 22.8338 52.924L20.8202 55.6414C20.4446 56.1484 19.775 56.3338 19.1923 56.0924C18.6093 55.851 18.2671 55.2465 18.3599 54.6224L18.8578 51.2756C18.9112 50.9168 18.7386 50.562 18.4233 50.3824C17.443 49.8244 16.494 49.1892 15.6032 48.4947C15.3166 48.2713 14.9221 48.2473 14.6106 48.4342L11.7064 50.1766C11.1656 50.5014 10.4761 50.4164 10.0298 49.9703C9.58359 49.5241 9.49875 48.8347 9.82336 48.2937L11.5658 45.3895C11.7527 45.0779 11.7287 44.6835 11.5052 44.397C10.8109 43.5063 10.1757 42.5575 9.61746 41.5767C9.43805 41.2615 9.08262 41.0889 8.72437 41.1422L5.3775 41.6402C4.7543 41.733 4.14902 41.391 3.9075 40.8078C3.66598 40.225 3.85148 39.5556 4.35844 39.1799L7.0759 37.1664C7.36746 36.9503 7.49637 36.5771 7.40016 36.2272C7.10051 35.1374 6.87867 34.0172 6.74062 32.8978C6.69621 32.537 6.43418 32.2409 6.08156 32.1527L2.79738 31.3317C2.1852 31.1784 1.75781 30.6309 1.75781 30C1.75781 29.3691 2.1852 28.8216 2.79738 28.6685L6.08156 27.8475C6.43418 27.7594 6.69621 27.4631 6.74062 27.1024C6.87867 25.983 7.10051 24.8629 7.40016 23.7729C7.49637 23.4229 7.36758 23.0498 7.0759 22.8336L4.35844 20.8202C3.8516 20.4445 3.66609 19.7752 3.90762 19.1921C4.14902 18.6093 4.75289 18.267 5.37762 18.3599L8.72437 18.8579C9.08367 18.9113 9.43805 18.7386 9.61746 18.4234C10.1756 17.4429 10.8108 16.494 11.5052 15.603C11.7286 15.3165 11.7526 14.9221 11.5658 14.6105L9.82336 11.7064C9.49863 11.1654 9.58359 10.476 10.0298 10.0298C10.476 9.58371 11.1654 9.49887 11.7064 9.82336L14.6106 11.5658C14.9221 11.7529 15.3165 11.7288 15.6032 11.5054C16.4941 10.8108 17.443 10.1756 18.4234 9.61746C18.7386 9.43805 18.9112 9.0832 18.8578 8.72437L18.3599 5.37762C18.2671 4.75359 18.6093 4.14914 19.1923 3.90773C19.7753 3.66621 20.4445 3.8516 20.8202 4.35867L22.8338 7.07613C23.0498 7.36781 23.4229 7.49637 23.7729 7.40039C24.8632 7.10074 25.9834 6.87891 27.1025 6.74098C27.4632 6.69644 27.7594 6.43453 27.8476 6.0818L28.6688 2.7975C28.8216 2.18531 29.3691 1.75781 30 1.75781C30.6309 1.75781 31.1784 2.18531 31.3314 2.7975L32.1525 6.08168C32.2407 6.4343 32.5369 6.69633 32.8976 6.74086C34.0167 6.87879 35.1369 7.10063 36.2272 7.40027C36.5771 7.49637 36.9503 7.3677 37.1664 7.07602L39.1799 4.35855C39.5555 3.85172 40.225 3.66621 40.8078 3.90762C41.3909 4.14902 41.733 4.75348 41.6402 5.37762L41.1423 8.72437C41.0889 9.0832 41.2615 9.43805 41.5767 9.61746C42.5571 10.1756 43.5061 10.8108 44.397 11.5054C44.6834 11.7287 45.0778 11.7527 45.3895 11.5658L48.2937 9.82336C48.8346 9.49887 49.5241 9.58359 49.9703 10.0298C50.4165 10.476 50.5014 11.1654 50.1768 11.7064L48.4343 14.6106C48.2474 14.9222 48.2714 15.3166 48.4949 15.6032C49.1891 16.4937 49.8243 17.4425 50.3827 18.4235C50.5621 18.7388 50.9174 18.911 51.2757 18.858L54.6226 18.36C55.2455 18.2667 55.8511 18.6093 56.0926 19.1924C56.3341 19.7753 56.1486 20.4446 55.6417 20.8202L52.9242 22.8338C52.6327 23.0498 52.5037 23.423 52.6 23.773C52.8994 24.8623 53.1212 25.9825 53.2595 27.1027C53.304 27.4634 53.5659 27.7595 53.9186 27.8476L57.2027 28.6686C57.8148 28.8216 58.2422 29.3691 58.2422 30C58.2422 30.6309 57.8148 31.1784 57.2026 31.3315L53.9184 32.1525C53.5658 32.2406 53.3039 32.5368 53.2594 32.8975C53.1211 34.0177 52.8993 35.1379 52.5998 36.227C52.5035 36.5771 52.6324 36.9503 52.924 37.1663Z" fill="#303030"/>
<path d="M25.6055 30C25.6055 32.4232 27.5768 34.3945 30 34.3945C32.4232 34.3945 34.3945 32.4232 34.3945 30C34.3945 27.5768 32.4232 25.6055 30 25.6055C27.5768 25.6055 25.6055 27.5768 25.6055 30ZM32.6367 30C32.6367 31.4539 31.4538 32.6367 30 32.6367C28.5462 32.6367 27.3633 31.4539 27.3633 30C27.3633 28.5461 28.5462 27.3633 30 27.3633C31.4538 27.3633 32.6367 28.5461 32.6367 30Z" fill="#303030"/>
<path d="M28.0505 16.3856C27.3777 15.8868 26.5345 15.7396 25.7371 15.9818C21.0518 17.4049 17.4049 21.0517 15.9819 25.737C15.7397 26.5345 15.8866 27.3776 16.3854 28.0504C16.8899 28.7309 17.6644 29.1211 18.5105 29.1211H23.1903C23.5914 29.1211 23.9415 28.8497 24.0416 28.4614C24.5996 26.2932 26.2932 24.5996 28.4613 24.0415C28.8497 23.9416 29.1212 23.5914 29.1212 23.1904V18.5106C29.1211 17.6645 28.7308 16.8899 28.0505 16.3856ZM27.3633 22.54C25.1099 23.3347 23.3346 25.1098 22.5399 27.3633H18.5105C18.2269 27.3633 17.9669 27.2322 17.7975 27.0036C17.6338 26.7827 17.585 26.5073 17.6638 26.2479C18.916 22.125 22.125 18.916 26.2479 17.6638C26.3292 17.6391 26.4121 17.627 26.4944 17.627C26.6746 17.627 26.8519 17.6853 27.0035 17.7977C27.232 17.9671 27.3631 18.227 27.3631 18.5105V22.54H27.3633Z" fill="#303030"/>
<path d="M44.0182 25.7371C42.595 21.0517 38.9482 17.4048 34.2629 15.9818C33.4652 15.7397 32.6223 15.8867 31.9495 16.3855C31.2691 16.8899 30.8789 17.6645 30.8789 18.5105V23.1903C30.8789 23.5913 31.1503 23.9414 31.5388 24.0414C33.7069 24.5994 35.4005 26.293 35.9585 28.4612C36.0586 28.8496 36.4087 29.121 36.8098 29.121H41.4897C42.3357 29.121 43.1102 28.7308 43.6147 28.0503C44.1134 27.3777 44.2603 26.5344 44.0182 25.7371ZM42.2025 27.0035C42.033 27.2322 41.7731 27.3633 41.4895 27.3633H37.46C36.6654 25.1098 34.8901 23.3346 32.6367 22.54V18.5105C32.6367 18.2269 32.7679 17.9671 32.9964 17.7976C33.2174 17.6338 33.4927 17.5852 33.752 17.6638C37.8749 18.9161 41.0838 22.125 42.3362 26.248C42.415 26.5072 42.3662 26.7826 42.2025 27.0035Z" fill="#303030"/>
<path d="M15.9818 34.2629C17.4051 38.9483 21.0518 42.5952 25.7371 44.0182C25.989 44.0947 26.2455 44.1323 26.4998 44.1323C27.0503 44.1323 27.5904 43.9557 28.0505 43.6145C28.7309 43.1101 29.1211 42.3355 29.1211 41.4895V36.8096C29.1211 36.4086 28.8497 36.0585 28.4612 35.9585C26.2932 35.4005 24.5996 33.7069 24.0415 31.5387C23.9414 31.1503 23.5913 30.8789 23.1903 30.8789H18.5104C17.6643 30.8789 16.8898 31.2691 16.3853 31.9496C15.8867 32.6223 15.7397 33.4656 15.9818 34.2629ZM17.7975 32.9965C17.967 32.7679 18.2269 32.6367 18.5105 32.6367H22.54C23.3346 34.8902 25.1099 36.6653 27.3633 37.46V41.4895C27.3633 41.7731 27.2322 42.0329 27.0037 42.2024C26.7826 42.3662 26.5073 42.4148 26.248 42.3362C22.1251 41.0839 18.9162 37.875 17.6638 33.752C17.5851 33.4928 17.6338 33.2174 17.7975 32.9965Z" fill="#303030"/>
<path d="M41.4895 30.8789H36.8096C36.4086 30.8789 36.0585 31.1503 35.9584 31.5387C35.4003 33.7069 33.7068 35.4005 31.5387 35.9585C31.1503 36.0585 30.8788 36.4086 30.8788 36.8096V41.4895C30.8788 42.3355 31.269 43.1101 31.9494 43.6145C32.4097 43.9557 32.9496 44.1323 33.5002 44.1323C33.7543 44.1323 34.0109 44.0947 34.2628 44.0182C38.9481 42.5952 42.595 38.9483 44.018 34.263C44.2602 33.4656 44.1132 32.6224 43.6145 31.9496C43.1101 31.2691 42.3356 30.8789 41.4895 30.8789ZM42.3362 33.7521C41.0839 37.875 37.875 41.0841 33.7521 42.3362C33.4929 42.415 33.2174 42.3662 32.9965 42.2024C32.768 42.0329 32.6368 41.773 32.6368 41.4895V37.46C34.8902 36.6654 36.6655 34.8902 37.4602 32.6367H41.4896C41.7732 32.6367 42.0332 32.7679 42.2026 32.9965C42.3662 33.2174 42.415 33.4928 42.3362 33.7521Z" fill="#303030"/>
</svg>

<svg width="60" height="60" fill="none" xmlns="http://www.w3.org/2000/svg"><path d="M30 8.32a21.692 21.692 0 00-13.98 5.11.88.88 0 001.135 1.344A19.932 19.932 0 0130 10.078c10.985 0 19.922 8.937 19.922 19.922 0 10.985-8.937 19.922-19.922 19.922-10.985 0-19.922-8.937-19.922-19.922 0-4.698 1.668-9.26 4.696-12.845a.879.879 0 00-1.344-1.134A21.694 21.694 0 008.32 30c0 11.954 9.726 21.68 21.68 21.68 11.954 0 21.68-9.726 21.68-21.68 0-11.954-9.726-21.68-21.68-21.68z" fill="#303030"/><path d="M57.63 33.037A3.126 3.126 0 0060 30a3.126 3.126 0 00-2.37-3.037l-2.708-.676a25.281 25.281 0 00-.474-2.395l2.24-1.66a3.126 3.126 0 001.028-3.712 3.126 3.126 0 00-3.352-1.899l-2.76.41a25.393 25.393 0 00-1.356-2.026l1.436-2.395a3.126 3.126 0 00-.47-3.823 3.126 3.126 0 00-3.825-.471l-2.394 1.436a25.375 25.375 0 00-2.027-1.357l.41-2.759a3.125 3.125 0 00-1.898-3.352 3.126 3.126 0 00-3.713 1.028l-1.66 2.24c-.789-.197-1.59-.355-2.394-.474l-.676-2.707A3.126 3.126 0 0030 0c-1.44 0-2.688.975-3.037 2.371l-.676 2.707c-.804.119-1.605.278-2.395.474l-1.66-2.24a3.126 3.126 0 00-3.712-1.028 3.125 3.125 0 00-1.899 3.352l.41 2.76a25.31 25.31 0 00-2.026 1.356L12.61 8.316a3.126 3.126 0 00-3.824.47 3.126 3.126 0 00-.471 3.825l1.436 2.394a25.375 25.375 0 00-1.357 2.027l-2.759-.41a3.125 3.125 0 00-3.352 1.898 3.126 3.126 0 001.028 3.713l2.24 1.66c-.197.789-.355 1.59-.474 2.394l-2.707.676A3.126 3.126 0 000 30c0 1.439.975 2.688 2.37 3.037l2.708.676c.119.804.277 1.605.474 2.395l-2.24 1.66a3.126 3.126 0 00-1.028 3.712 3.126 3.126 0 003.352 1.899l2.76-.41c.418.695.872 1.374 1.356 2.026L8.316 47.39a3.126 3.126 0 00.47 3.824 3.126 3.126 0 003.825.47l2.394-1.435c.652.484 1.331.938 2.027 1.357l-.41 2.759a3.125 3.125 0 001.898 3.352c1.329.55 2.856.128 3.713-1.028l1.66-2.24c.789.196 1.59.355 2.394.474l.676 2.707A3.125 3.125 0 0030 60c1.44 0 2.688-.975 3.037-2.371l.676-2.707c.804-.119 1.605-.278 2.395-.474l1.66 2.24a3.126 3.126 0 003.712 1.028 3.125 3.125 0 001.899-3.352l-.41-2.76a25.368 25.368 0 002.026-1.356l2.394 1.436a3.126 3.126 0 003.824-.471 3.126 3.126 0 00.471-3.824l-1.436-2.394c.484-.652.938-1.33 1.357-2.027l2.759.41a3.125 3.125 0 003.352-1.898 3.126 3.126 0 00-1.028-3.713l-2.24-1.66c.197-.788.355-1.59.474-2.394l2.707-.676zm-4.706 4.13l2.717 2.013a1.37 1.37 0 01.451 1.628 1.37 1.37 0 01-1.47.832l-3.346-.498a.88.88 0 00-.894.435c-.558.98-1.193 1.93-1.887 2.82a.88.88 0 00-.06.992l1.741 2.905a1.37 1.37 0 01-.206 1.676 1.37 1.37 0 01-1.677.206l-2.904-1.742a.88.88 0 00-.992.06c-.891.695-1.84 1.33-2.82 1.888a.879.879 0 00-.435.894l.498 3.346a1.37 1.37 0 01-.832 1.47 1.37 1.37 0 01-1.628-.45l-2.014-2.718a.88.88 0 00-.94-.324c-1.09.3-2.21.521-3.329.66a.88.88 0 00-.745.658l-.82 3.285A1.37 1.37 0 0130 58.243a1.37 1.37 0 01-1.331-1.04l-.822-3.285a.88.88 0 00-.745-.659 23.39 23.39 0 01-3.33-.66.879.879 0 00-.938.325l-2.014 2.717a1.37 1.37 0 01-1.628.451 1.37 1.37 0 01-.832-1.47l.498-3.346a.88.88 0 00-.435-.894 23.55 23.55 0 01-2.82-1.887.879.879 0 00-.992-.06l-2.905 1.742a1.37 1.37 0 01-1.676-.207 1.37 1.37 0 01-.207-1.676l1.743-2.904a.879.879 0 00-.06-.993c-.695-.89-1.33-1.84-1.889-2.82a.88.88 0 00-.893-.435l-3.346.498a1.37 1.37 0 01-1.02-2.46l2.718-2.014a.88.88 0 00.324-.939c-.3-1.09-.521-2.21-.66-3.33a.879.879 0 00-.658-.744l-3.285-.821A1.37 1.37 0 011.757 30c0-.63.428-1.178 1.04-1.331l3.285-.822a.879.879 0 00.659-.745c.138-1.119.36-2.24.66-3.33a.88.88 0 00-.325-.938L4.358 20.82a1.37 1.37 0 01-.45-1.628 1.37 1.37 0 011.47-.832l3.346.498c.36.053.714-.12.893-.435.559-.98 1.194-1.929 1.888-2.82a.879.879 0 00.06-.992l-1.742-2.905a1.37 1.37 0 01.207-1.676 1.37 1.37 0 011.676-.207l2.905 1.743a.879.879 0 00.992-.06c.891-.695 1.84-1.33 2.82-1.889a.879.879 0 00.435-.893l-.498-3.346a1.37 1.37 0 01.832-1.47 1.37 1.37 0 011.628.45l2.014 2.718a.88.88 0 00.939.324c1.09-.3 2.21-.521 3.33-.659a.88.88 0 00.745-.66l.82-3.284A1.37 1.37 0 0130 1.757c.63 0 1.178.428 1.331 1.04l.822 3.285a.88.88 0 00.745.659c1.119.138 2.239.36 3.33.66a.88.88 0 00.938-.325l2.014-2.717a1.37 1.37 0 011.628-.451c.583.241.925.845.832 1.47l-.498 3.346a.879.879 0 00.435.893c.98.559 1.93 1.194 2.82 1.888.286.224.68.248.992.06l2.905-1.742a1.37 1.37 0 011.676.207 1.37 1.37 0 01.207 1.676l-1.743 2.905a.879.879 0 00.06.992c.695.89 1.33 1.84 1.889 2.82a.88.88 0 00.893.435l3.347-.498a1.37 1.37 0 011.47.832 1.37 1.37 0 01-.451 1.628l-2.718 2.014a.879.879 0 00-.324.939c.3 1.09.521 2.21.66 3.33.044.36.306.656.659.745l3.284.82c.612.154 1.04.701 1.04 1.332a1.37 1.37 0 01-1.04 1.331l-3.285.822a.879.879 0 00-.659.745c-.138 1.12-.36 2.24-.66 3.329a.879.879 0 00.325.94z" fill="#303030"/><path d="M25.605 30A4.4 4.4 0 0030 34.395 4.4 4.4 0 0034.395 30 4.4 4.4 0 0030 25.605 4.4 4.4 0 0025.605 30zm7.032 0A2.64 2.64 0 0130 32.637 2.64 2.64 0 0127.363 30 2.64 2.64 0 0130 27.363 2.64 2.64 0 0132.637 30zM28.05 16.386a2.587 2.587 0 00-2.313-.404 14.616 14.616 0 00-9.755 9.755 2.587 2.587 0 00.403 2.313 2.622 2.622 0 002.125 1.071h4.68a.88.88 0 00.852-.66 6.146 6.146 0 014.42-4.42c.388-.1.66-.45.66-.85v-4.68c0-.846-.391-1.621-1.072-2.125zm-.687 6.154a7.905 7.905 0 00-4.823 4.823h-4.03a.88.88 0 01-.713-.36.846.846 0 01-.133-.755 12.861 12.861 0 018.584-8.584.847.847 0 01.755.134c.229.17.36.429.36.713v4.029zM44.018 25.737a14.617 14.617 0 00-9.755-9.755 2.588 2.588 0 00-2.313.404 2.622 2.622 0 00-1.071 2.125v4.68c0 .4.271.75.66.85a6.146 6.146 0 014.42 4.42c.1.389.45.66.85.66h4.68c.847 0 1.621-.39 2.126-1.07a2.587 2.587 0 00.403-2.314zm-1.816 1.267a.88.88 0 01-.712.36h-4.03a7.904 7.904 0 00-4.823-4.824v-4.03a.88.88 0 01.36-.712.846.846 0 01.755-.134 12.862 12.862 0 018.584 8.584c.079.26.03.535-.133.755zM15.982 34.263a14.617 14.617 0 009.755 9.755 2.595 2.595 0 002.313-.404 2.622 2.622 0 001.071-2.124v-4.68a.879.879 0 00-.66-.852 6.146 6.146 0 01-4.42-4.42.879.879 0 00-.85-.66h-4.68c-.847 0-1.621.391-2.126 1.072a2.588 2.588 0 00-.403 2.313zm1.816-1.267a.88.88 0 01.713-.36h4.029a7.905 7.905 0 004.823 4.824v4.03a.88.88 0 01-.36.712.846.846 0 01-.755.134 12.862 12.862 0 01-8.584-8.584.846.846 0 01.133-.756zM41.49 30.879h-4.68a.879.879 0 00-.852.66 6.146 6.146 0 01-4.42 4.42c-.388.1-.66.45-.66.85v4.68c0 .847.391 1.621 1.071 2.126a2.595 2.595 0 002.314.403 14.616 14.616 0 009.755-9.755 2.588 2.588 0 00-.404-2.313 2.621 2.621 0 00-2.124-1.071zm.846 2.873a12.861 12.861 0 01-8.584 8.584.845.845 0 01-.756-.134.88.88 0 01-.36-.712v-4.03a7.905 7.905 0 004.824-4.823h4.03a.88.88 0 01.713.36c.163.22.212.496.133.755z" fill="#303030"/></svg>
